X: 14
T:The Goat on the Green
M:6/8
L:1/8
R:jig
K:Emin
~E3 GEE|BEE GFE|D3 FDD|ADD FED|
~E3 GEE|BEE G2A|~B3 ABA|1 GED EGD:|2 GED E2B||
|:efe ~B3|e2f gfe|fdd Add|Bdd fed|
e^de ~B3|e2f gfe|fdB AGF|1 GED E2B:|2 GED EGD||

